X: 1701
T: Antigonish Polka, The
R: barndance
M: 4/4
K: Dmajor
|:B|A2 f2 fedB|A2 AB AGFA|d2 cd b2 a2|gfga gfed|
c2 cd cBAc|d2 dc defg|a2 ^ga b2 c2|d4 d3:|
|:B|A/A/A ^GA Bcde|f2 A2 f<a- a2|A2 ^GA Bcde|f2 A2 f<agf|
eagf edcB|Aagf edcB|A/A/A ^GA BAFA|d4 d3:|

